.local/share/icons/Gruvbox-Plus-Dark/apps/16/sonic-visualiser.svg

<svg width="16" height="16" version="1.1" xmlns="http://www.w3.org/2000/svg">
  <defs>
    <style id="current-color-scheme" type="text/css">.ColorScheme-Text { color:#ebdbb2; } .ColorScheme-Highlight { color:#458588; }</style>
  </defs>
  <path class="ColorScheme-Text" d="m6.39 1.86c-0.308 9e-3 -0.569 0.198-0.63 0.458l-1.156 4.93-0.326-2.594c-0.034-0.268-0.282-0.479-0.595-0.506-0.312-0.028-0.605 0.136-0.702 0.392l-1.035 2.746h-1.946v1.143h2.432c0.289 0 0.545-0.16 0.634-0.396l0.222-0.588 0.454 3.616c0.035 0.28 0.304 0.496 0.632 0.509 0.329 0.013 0.619-0.181 0.684-0.458l1.148-4.897 0.907 7.415c0.036 0.285 0.312 0.504 0.647 0.511 0.334 7e-3 0.623-0.2 0.675-0.483l1.18-6.506 0.801 4.786c0.046 0.278 0.322 0.486 0.65 0.491 0.328 4e-3 0.611-0.197 0.667-0.474l0.835-4.095 0.19 0.699c0.071 0.258 0.34 0.441 0.65 0.441h2.592v-1.142h-2.063l-0.813-2.987c-0.072-0.264-0.351-0.449-0.668-0.441s-0.583 0.205-0.638 0.473l-0.677 3.318-0.84-5.015c-0.046-0.28-0.325-0.489-0.656-0.491-0.33-1e-3 -0.612 0.205-0.663 0.485l-1.077 5.941-0.829-6.77c-0.037-0.299-0.336-0.522-0.686-0.511z" fill="currentColor"/>
</svg>

<svg xmlns="http://www.w3.org/2000/svg" style="isolation:isolate" width="16" height="16" viewBox="0 0 16 16">
 <defs>
  <style id="current-color-scheme" type="text/css">
   .ColorScheme-Text { color:#ebdbb2; } .ColorScheme-Highlight { color:#458588; }
  </style>
  <linearGradient id="arrongin" x1="0%" x2="0%" y1="0%" y2="100%">
   <stop offset="0%" style="stop-color:#d79921; stop-opacity:1"/>
   <stop offset="100%" style="stop-color:#b57614; stop-opacity:1"/>
  </linearGradient>
  <linearGradient id="aurora" x1="0%" x2="0%" y1="0%" y2="100%">
   <stop offset="0%" style="stop-color:#83a598; stop-opacity:1"/>
   <stop offset="100%" style="stop-color:#b16286; stop-opacity:1"/>
  </linearGradient>
  <linearGradient id="fitdance" x1="0%" x2="0%" y1="0%" y2="100%">
   <stop offset="0%" style="stop-color:#8ec07c; stop-opacity:1"/>
   <stop offset="100%" style="stop-color:#458588; stop-opacity:1"/>
  </linearGradient>
  <linearGradient id="oomox" x1="0%" x2="0%" y1="0%" y2="100%">
   <stop offset="0%" style="stop-color:#458588; stop-opacity:1"/>
   <stop offset="100%" style="stop-color:#928374; stop-opacity:1"/>
  </linearGradient>
  <linearGradient id="rainblue" x1="0%" x2="0%" y1="0%" y2="100%">
   <stop offset="0%" style="stop-color:#b8bb26; stop-opacity:1"/>
   <stop offset="100%" style="stop-color:#076678; stop-opacity:1"/>
  </linearGradient>
  <linearGradient id="sunrise" x1="0%" x2="0%" y1="0%" y2="100%">
   <stop offset="0%" style="stop-color: #fe8019; stop-opacity:1"/>
   <stop offset="100%" style="stop-color: #fabd2f; stop-opacity:1"/>
  </linearGradient>
  <linearGradient id="telinkrin" x1="0%" x2="0%" y1="0%" y2="100%">
   <stop offset="0%" style="stop-color: #83a598; stop-opacity:1"/>
   <stop offset="100%" style="stop-color: #83a598; stop-opacity:1"/>
  </linearGradient>
  <linearGradient id="60spsycho" x1="0%" x2="0%" y1="0%" y2="100%">
   <stop offset="0%" style="stop-color: #fb4934; stop-opacity:1"/>
   <stop offset="25%" style="stop-color: #fabd2f; stop-opacity:1"/>
   <stop offset="50%" style="stop-color: #fe8019; stop-opacity:1"/>
   <stop offset="100%" style="stop-color: #689d6a; stop-opacity:1"/>
  </linearGradient>
  <linearGradient id="90ssummer" x1="0%" x2="0%" y1="0%" y2="100%">
   <stop offset="0%" style="stop-color: #b16286; stop-opacity:1"/>
   <stop offset="20%" style="stop-color: #8ec07c; stop-opacity:1"/>
   <stop offset="50%" style="stop-color: #fabd2f; stop-opacity:1"/>
   <stop offset="100%" style="stop-color: #458588; stop-opacity:1"/>
  </linearGradient>
  <linearGradient id="cyberneon" x1="0%" x2="0%" y1="0%" y2="100%">
    <stop offset="0" style="stop-color:#83a598; stop-opacity:1"/>
    <stop offset="1" style="stop-color:#b16286; stop-opacity:1"/>
  </linearGradient>
  <clipPath id="_clipPath_Gi5cMZ99syhcxvrdZ4aW0yD4cKxU49R5">
   <rect width="16" height="16"/>
  </clipPath>
 </defs>
 <g clip-path="url(#_clipPath_Gi5cMZ99syhcxvrdZ4aW0yD4cKxU49R5)">
  <rect style="fill:currentColor" class="ColorScheme-Text" fill-opacity="0" width="16" height="16"/>
  <path style="fill:currentColor" class="ColorScheme-Text" d="M 6.39 1.86 C 6.082 1.869 5.821 2.058 5.76 2.318 L 4.604 7.248 L 4.278 4.654 C 4.244 4.386 3.996 4.175 3.683 4.148 C 3.371 4.12 3.078 4.284 2.981 4.54 L 1.946 7.286 L 0 7.286 L 0 8.429 L 2.432 8.429 C 2.721 8.429 2.977 8.269 3.066 8.033 L 3.288 7.445 L 3.742 11.061 C 3.777 11.341 4.046 11.557 4.374 11.57 C 4.703 11.583 4.993 11.389 5.058 11.112 L 6.206 6.215 L 7.113 13.63 C 7.149 13.915 7.425 14.134 7.76 14.141 C 8.094 14.148 8.383 13.941 8.435 13.658 L 9.615 7.152 L 10.416 11.938 C 10.462 12.216 10.738 12.424 11.066 12.429 C 11.394 12.433 11.677 12.232 11.733 11.955 L 12.568 7.86 L 12.758 8.559 C 12.829 8.817 13.098 9 13.408 9 L 16 9 L 16 7.858 L 13.937 7.858 L 13.124 4.871 C 13.052 4.607 12.773 4.422 12.456 4.43 C 12.139 4.438 11.873 4.635 11.818 4.903 L 11.141 8.221 L 10.301 3.206 C 10.255 2.926 9.976 2.717 9.645 2.715 C 9.315 2.714 9.033 2.92 8.982 3.2 L 7.905 9.141 L 7.076 2.371 C 7.039 2.072 6.74 1.849 6.39 1.86 Z"/>
 </g>
</svg>
